X:1
T:James Gibb editions
T:Herr, ich hoffe darauf - Schütz
T:#
%%score [ 1 2 ] 3
L:1/8
Q:1/4=100
M:4/4
K:C
V:1 treble nm="Soprano I" snm="S I"
V:2 treble nm="Soprano II" snm="S II"
V:3 bass nm="Continuo"
V:1
"^Herr, ich hoffe darauf, SWV 312""^Heinrich Schütz\n(1585-1672)""^Psalm 13:5-6" D4 z2 D2 | %1
w: Herr, ich|
 F4 G2 A2 | E4 z GFE | F4 E4 | D4 z2 DG | (EF/G/ CD/E/ FG/A/ DE/F/ | GA/B/ E^F/G/ F3) F | %7
w: hof- fe dar-|auf, dass du so|gnä- dig|bist, mein Herz|freu\- * * * * * * * * * * *|* * * * * * * et|
 G4 z2 G2 | F2 E2 D2 D2 | C4 z2 EA | (^FG/A/ DE/F/ GA/B/ EF/G/ | AB/c/ ^FG/A/ ^G3) G | A4 z2 A2 | %13
w: sich, dass|du so ger- ne|hilfst, mein Herz|freu\- * * * * * * * * * * *|* * * * * * * et|sich, dass|
 G2 F2 E2 E2 | D4 z4 | A4 z2 A2 | c4 d2 e2 | B4 z dcB | c4 B4 | AcBA _B4 | A8 | G8 | z4 z2 Gc | %23
w: du so ger- ne|hilfst.|Herr, ich|hof- fe dar-|auf, dass du so|gnä- dig|bist, dass du so gnä-|dig|bist,|mein Herz|
 (AB/c/ FG/A/ Bc/d/ GA/B/ | cd/e/ AB/c/ B3) B | c4 z2 d2 | cBBA A2 Ad | (Bc/d/ GA/B/ cd/e/ AB/c/ | %28
w: freu\- * * * * * * * * * * *|* * * * * * * et|sich, dass|du so ger- ne hilfst, mein Herz|freu\- * * * * * * * * * * *|
 de/f/ Bc/d/ ^c3) c | d4 z2 e2 | dccB B4 | z2 c2 _B2 A2 | (G2 F4) E2 | F8 | z8 | z8 | z8 | z8 | %38
w: * * * * * * * et|sich, daß|du so ger- ne hilfst,|dass du so|ger\- * ne|hilfst.|||||
 z A^FF AA/A/ FF/F/ | AADD z AB^c | d4 B4 | A8 | G2 z d BB dd/d/ | BB/B/ dd GG z2 | z8 | z8 | z8 | %47
w: Ich will dem Her- ren, dem Her- ren, dem|Her- ren sin- gen, dass er so|wohl an|mir|thut, ich will dem Her- ren, dem|Her- ren, dem Her- ren sin- gen,||||
 z8 | z8 | z8 | z A^FF AA/A/ FF/F/ | AADD z FGA | _B4 z GAB | c4 z A_Bc | d4 z2 G2 | G8 | %56
w: |||ich will dem Her- ren, dem Her- ren, dem|Her- ren sin- gen, dass er so|wohl, dass er so|wohl, dass er so|wohl an|mir|
 F4 z DEF | G4 F4 | E8 | D8 | z8 | z4 z2 c2 | (AB/c/ FG/A/ Bc/d/ GA/B/ | cd/e/ AB/c/ B3) B | %64
w: thut, dass er so|wohl an|mir|thut.||Al-|le\- * * * * * * * * * * *|* * * * * * * lu-|
 c4 z2 d2 | c2 B2 A2 z d | (Bc/d/ GA/B/ cd/e/ AB/c/ | de/f/ B^c/d/ c3) c | d4 z2 e2 | d2 c2 B4 | %70
w: ja, Al-|le- lu- ja, Al-|le\- * * * * * * * * * * *|* * * * * * * lu-|ja, Al-|le- lu- ja,|
 z2 c2 _B2 A2 | G2 F2 F2 E2 | F4 z2 A2 | G2 F2 E2 d2 | c2 _B2 A2 G2 | (F4 E2 D2) | E8 | %77
w: Al- le- lu-|ja, Al- le- lu-|ja, Al-|le- lu- ja, Al-|le- lu- ja, Al-|le\- * *|lu-|
 !fermata!D8 |] %78
w: ja.|
V:2
 z8 | z8 | z8 | z8 | z8 | z8 | z8 | z8 | z8 | z8 | z8 | z8 | z8 | z8 | z8 | F4 z2 F2 | A4 B2 c2 | %17
w: |||||||||||||||Herr, ich|hof- fe dar-|
 ^G4 z2 z B | A^G A4 G2 | A2 z A =G^F (G2- | G2 ^FE) F4 | G8 | z8 | z8 | z4 z2 DG | %25
w: auf, dass|du so gnä- dig|bist, daß du so gnä\-|* * * dig|bist,|||mein Herz|
 (EF/G/ CD/E/ FG/A/ DE/F/ | GA/B/ EF/G/ ^F3) F | G4 z2 A2 | GFFE E2 EA | %29
w: freu\- * * * * * * * * * * *|* * * * * * * et|* et|du so ger- ne hilfst, mein Herz|
 (^FG/A/ DE/F/ GA/B/ E=F/G/ | AB/c/ ^FG/A/ ^G3) G | A4 z2 c2 | _B2 A2 G2 G2 | F8 | %34
w: freu\- * * * * * * * * * * *|* * * * * * * et|sich, dass|du so ger- ne|hilfst.|
 z GEE GG/G/ EE/E/ | GGCC z EFG | A4 F4 | E8 | D8 | z8 | z8 | z8 | z8 | z dBB dd/d/ BB/B/ | %44
w: Ich will dem Her- ren, dem Her- ren, dem|Her- ren sin- gen, dass er so|wohl an|mir|thut,|||||ich will dem Her- ren, dem Her- ren, dem|
 ddGG z B^cd | e4 =c4 | B8 | A4 z EFG | A4 F4 | E8 | D2 z A ^FF AA/A/ | FF/F/ AA DD z2 | %52
w: Her- ren sin- gen, dass er so|wohl an|mir|thut, dass er so|wohl an|mir|thut, ich will dem Her- ren, dem|Her- ren, dem Her- ren sin- gen,|
 z DE^F G4 | z E=FG A4 | z FGA _B4 | E2 (F4 E2) | FFGA G2 F2 | (E2 D2 D4- | D2 ^CB, C4) | %59
w: dass er so wohl,|dass er so wohl,|dass er so wohl|an mir *|thut, dass er so wohl an|mir * *||
 D4 z2 F2 | (DE/F/ _B,C/D/ EF/G/ CD/E/ | FG/A/ DE/F/ E3) E | F4 z2 G2 | F2 E2 D2 z G | %64
w: thut. Al-|le\- * * * * * * * * * * *|* * * * * * * lu-|ja, Al-|le- lu- ja, Al-|
 (EF/G/ CD/E/ FG/A/ DE/F/ | GA/B/ E^F/G/ F3) F | G4 z2 A2 | G2 F2 E2 z A | %68
w: le\- * * * * * * * * * * *|* * * * * * * lu-|ja, Al-|le- lu- ja, Al-|
 (^FG/A/ DE/F/ GA/B/ EF/G/ | AB/c/ ^FG/A/ ^G3) G | A4 z2 c2 | _B2 A2 G4 | z2 A2 G2 F2 | %73
w: le\- * * * * * * * * * * *|* * * * * * * lu-|ja, Al-|le- lu- ja.|Al- le- lu-|
 E2 d2 c2 _B2 | A2 G2 F2 (E2- | E2 D2 D4- | D4 ^C4) | !fermata!D8 |] %78
w: ja, Al- le- lu-|ja, Al- le- lu\-|||ja.|
V:3
 D,8 | D,8 | ^C,8 | D,2 G,,2 A,,4 | D,4 G,,4 | C,4 D,4 | E,2 C,2 D,4 | G,,4 C,4 | D,2 E,2 F,2 G,2 | %9
w: |||||||||
 C,4 A,,4 | D,4 E,4 | F,2 D,2 E,4 | A,,4 D,4 | E,2 F,2 G,2 A,2 | D,4 z4 | D,8 | A,,8 | E,4 B,,4 | %18
w: |||||||||
 E,2 A,,2 x2- x2 | A,,4 D,2 G,,2 | x4- x4 | G,,8- | G,,4 C,4 | F,4 G,4 | A,2 F,2 G,4 | C,4 D,4 | %26
w: 6 * 4|* 6 *|4||||||
 E,2 C,2 D,4 | G,4 A,4 | _B,2 G,2 A,4 | D,4 E,4 | F,2 D,2 E,4 | A,,2 F,,2 G,,2 A,,2 | %32
w: ||* 6 *||6 * *||
 x2- x2 x2- x2 | F,,8 | C,8 | C,8 | ^C,4 D,4 | A,,8 | D,8 | D,8 | ^F,4 G,4 | D,8 | G,8 | G,8 | %44
w: 6 4||||||||||||
 G,8 | ^G,4 A,4 | E,8 | A,,8 | (x4- x4 | A,,8) | D,8 | D,8 | G,,8 | A,,8 | _B,,8 | C,2 B,,2 C,4 | %56
w: ||||||||||||
 F,,4 x2- x2 | x4- x4 | x4- x4 | D,4 D,4 | _B,,4 C,4 | D,2 B,,2 C,4 | F,4 G,4 | A,2 F,2 G,4 | %64
w: |6|4||||||
 C,4 D,4 | E,2 C,2 D,4 | G,4 A,4 | _B,2 G,2 A,4 | D,4 E,4 | F,2 D,2 E,4 | A,,2 F,,2 G,,2 A,,2 | %71
w: |||||||
 _B,,4 C,4 | F,,4 E,,2 F,,2 | C,2 D,2 A,,2 _B,,2 | F,,2 G,,2 A,,2 C,2 | D,8 | A,,8 | %77
w: ||||||
 !fermata!D,8 |] %78
w: |

